Catalina-light/actions/16/system-run.svg

<svg xmlns="http://www.w3.org/2000/svg" width="16" height="16" viewBox="0 0 16 16">
 <defs>
  <style id="current-color-scheme" type="text/css">
   .ColorScheme-Text { color:#5c616c; } .ColorScheme-Highlight { color:#5294e2; }
  </style>
 </defs>
 <path style="fill:currentColor" class="ColorScheme-Text" d="M 4.1894531 1.0664062 L 2.890625 1.8164062 L 3.2285156 2.5332031 A 2.3571 2.3571 0 0 0 2.8320312 3.2226562 L 2.0410156 3.2890625 L 2.0410156 4.7890625 L 2.8320312 4.8554688 A 2.3571 2.3571 0 0 0 3 5.21875 A 2.3571 2.3571 0 0 0 3.2285156 5.546875 L 2.890625 6.2617188 L 4.1894531 7.0136719 L 4.6425781 6.3613281 A 2.3571 2.3571 0 0 0 5.4375 6.359375 L 5.890625 7.0136719 L 7.1894531 6.2636719 L 6.8515625 5.5449219 A 2.3571 2.3571 0 0 0 7.25 4.8554688 L 8.0410156 4.7890625 L 8.0410156 3.2890625 L 7.25 3.2246094 A 2.3571 2.3571 0 0 0 7.0820312 2.8613281 A 2.3571 2.3571 0 0 0 6.8515625 2.5332031 L 7.1894531 1.8164062 L 5.890625 1.0664062 L 5.4394531 1.7167969 A 2.3571 2.3571 0 0 0 4.6425781 1.71875 L 4.1894531 1.0664062 z M 5.0195312 3.1835938 A 0.85714 0.85714 0 0 1 5.7832031 3.6113281 A 0.85714 0.85714 0 0 1 5.46875 4.78125 A 0.85714 0.85714 0 0 1 4.2988281 4.46875 A 0.85714 0.85714 0 0 1 4.6113281 3.296875 A 0.85714 0.85714 0 0 1 5.0195312 3.1835938 z M 7.7597656 5.9921875 L 7.6503906 7.3105469 A 3.9286 3.9286 0 0 0 6.5019531 7.9746094 L 5.3046875 7.4101562 L 4.0546875 9.5761719 L 5.140625 10.330078 A 3.9286 3.9286 0 0 0 5.0820312 10.992188 A 3.9286 3.9286 0 0 0 5.1386719 11.658203 L 4.0546875 12.410156 L 5.3046875 14.576172 L 6.4980469 14.013672 A 3.9286 3.9286 0 0 0 7.6503906 14.673828 L 7.7597656 15.992188 L 10.259766 15.992188 L 10.369141 14.675781 A 3.9286 3.9286 0 0 0 11.517578 14.011719 L 12.714844 14.576172 L 13.964844 12.410156 L 12.878906 11.65625 A 3.9286 3.9286 0 0 0 12.939453 10.992188 A 3.9286 3.9286 0 0 0 12.880859 10.328125 L 13.964844 9.5761719 L 12.714844 7.4101562 L 11.521484 7.9726562 A 3.9286 3.9286 0 0 0 10.371094 7.3125 L 10.259766 5.9921875 L 7.7597656 5.9921875 z M 9.0097656 9.5644531 A 1.4286 1.4286 0 0 1 10.439453 10.992188 A 1.4286 1.4286 0 0 1 9.0097656 12.421875 A 1.4286 1.4286 0 0 1 7.5820312 10.992188 A 1.4286 1.4286 0 0 1 9.0097656 9.5644531 z"/>
</svg>

<svg width="16" height="16" viewBox="0 0 16 16" xmlns="http://www.w3.org/2000/svg">
<defs>
<style id="current-color-scheme" type="text/css">.ColorScheme-Text { color:#5c616c; } .ColorScheme-Highlight { color:#5294e2; }</style>
</defs>
<path class="ColorScheme-Text" d="m4.1895 1.0664-1.2988 0.75 0.33789 0.7168a2.3571 2.3571 0 0 0-0.39648 0.68945l-0.79102 0.066406v1.5l0.79102 0.066406a2.3571 2.3571 0 0 0 0.16797 0.36328 2.3571 2.3571 0 0 0 0.22852 0.32812l-0.33789 0.71484 1.2988 0.75195 0.45312-0.65234a2.3571 2.3571 0 0 0 0.79492-0.0019531l0.45312 0.6543 1.2988-0.75-0.33789-0.71875a2.3571 2.3571 0 0 0 0.39844-0.68945l0.79102-0.066406v-1.5l-0.79102-0.064453a2.3571 2.3571 0 0 0-0.16797-0.36328 2.3571 2.3571 0 0 0-0.23047-0.32812l0.33789-0.7168-1.2988-0.75-0.45117 0.65039a2.3571 2.3571 0 0 0-0.79688 0.0019531l-0.45312-0.65234zm0.83008 2.1172a0.85714 0.85714 0 0 1 0.76367 0.42773 0.85714 0.85714 0 0 1-0.31445 1.1699 0.85714 0.85714 0 0 1-1.1699-0.3125 0.85714 0.85714 0 0 1 0.3125-1.1719 0.85714 0.85714 0 0 1 0.4082-0.11328zm2.7402 2.8086-0.10938 1.3184a3.9286 3.9286 0 0 0-1.1484 0.66406l-1.1973-0.56445-1.25 2.166 1.0859 0.75391a3.9286 3.9286 0 0 0-0.058594 0.66211 3.9286 3.9286 0 0 0 0.056641 0.66602l-1.084 0.75195 1.25 2.166 1.1934-0.5625a3.9286 3.9286 0 0 0 1.1523 0.66016l0.10938 1.3184h2.5l0.10938-1.3164a3.9286 3.9286 0 0 0 1.1484-0.66406l1.1973 0.56445 1.25-2.166-1.0859-0.75391a3.9286 3.9286 0 0 0 0.060547-0.66406 3.9286 3.9286 0 0 0-0.058594-0.66406l1.084-0.75195-1.25-2.166-1.1934 0.5625a3.9286 3.9286 0 0 0-1.1504-0.66016l-0.11133-1.3203h-2.5zm1.25 3.5723a1.4286 1.4286 0 0 1 1.4297 1.4277 1.4286 1.4286 0 0 1-1.4297 1.4297 1.4286 1.4286 0 0 1-1.4277-1.4297 1.4286 1.4286 0 0 1 1.4277-1.4277z" fill="currentColor"/>
</svg>
